X:47
T:Worcester Hornpipe,aka. JBu.47, The
T:New Bridge,aka. JBu.47, The
T:Navy,aka. JBu.47, The
O:England,South Yorkshire
S:Joshua Burnett’s MS,c1835,S.Yorkshire
M:4/4
L:1/8
Q:1/2=90
R:.hornpipe
C:untitled in MS
N:No time sig in MS
Z:vmp.R.Greig.2011
K:G
D2|GFGA GBdB|cdef gfge|dBGB dBGB|cAFA cAFA|
GFGA GBdB|cdef gfge|dgec BAGF|G2G2G2:|
|:d2|dcdB GBdB|ecec Acec|dBdB GBdB|AGFED4|
dBdB GBdB|cdef gfge|dgec BAGF|G2G2G2:|

